assets/icons/logo.svg

<svg width="130" height="52" xmlns="http://www.w3.org/2000/svg"><rect fill="#EC1D24" width="100%" height="100%"></rect><path fill="#FEFEFE" d="M126.222 40.059v7.906H111.58V4h7.885v36.059h6.757zm-62.564-14.5c-.61.294-1.248.44-1.87.442v-14.14h.04c.622-.005 5.264.184 5.264 6.993 0 3.559-1.58 5.804-3.434 6.705zM40.55 34.24l2.183-18.799 2.265 18.799H40.55zm69.655-22.215V4.007H87.879l-3.675 26.779-3.63-26.78h-8.052l.901 7.15c-.928-1.832-4.224-7.15-11.48-7.15-.047-.002-8.06 0-8.06 0l-.031 39.032-5.868-39.031-10.545-.005-6.072 40.44.002-40.435H21.278L17.64 26.724 14.096 4.006H4v43.966h7.95V26.78l3.618 21.192h4.226l3.565-21.192v21.192h15.327l.928-6.762h6.17l.927 6.762 15.047.008h.01v-.008h.02V33.702l1.845-.27 3.817 14.55h7.784l-.002-.01h.022l-5.011-17.048c2.538-1.88 5.406-6.644 4.643-11.203v-.002C74.894 19.777 79.615 48 79.615 48l9.256-.027 6.327-39.85v39.85h15.007v-7.908h-7.124v-10.08h7.124v-8.03h-7.124v-9.931h7.124z"></path><path fill="#EC1D24" d="M0 0h30v52H0z"></path><path fill="#FEFEFE" d="M31.5 48V4H21.291l-3.64 22.735L14.102 4H4v44h8V26.792L15.577 48h4.229l3.568-21.208V48z"></path></svg>

<svg width="130" height="52" viewBox="0 0 130 52" fill="none" xmlns="http://www.w3.org/2000/svg">
<g clip-path="url(#clip0_13_578)">
<path d="M1 0H0V1H1V0Z" fill="#EC1D24"/>
<path d="M0 0H130V52H0V0Z" fill="#EC1D24"/>
<path d="M31.5 48V4H21.291L17.651 26.735L14.102 4H4V48H12V26.792L15.577 48H19.806L23.374 26.792V48H31.5Z" fill="#FEFEFE"/>
<path d="M126.222 40.059V47.965H111.58V4H119.465V40.059H126.222ZM63.658 25.559C63.048 25.853 62.41 25.999 61.788 26.001V11.861H61.828C62.45 11.856 67.092 12.045 67.092 18.854C67.092 22.413 65.512 24.658 63.658 25.559ZM40.55 34.24L42.733 15.441L44.998 34.24H40.55ZM110.205 12.025V4.007H87.879L84.204 30.786L80.574 4.006H72.522L73.423 11.156C72.495 9.324 69.199 4.006 61.943 4.006C61.896 4.004 53.883 4.006 53.883 4.006L53.852 43.038L47.984 4.007L37.439 4.002L31.367 44.442L31.369 4.007H21.278L17.64 26.724L14.096 4.006H4V47.972H11.95V26.78L15.568 47.972H19.794L23.359 26.78V47.972H38.686L39.614 41.21H45.784L46.711 47.972L61.758 47.98H61.768V47.972H61.788V33.702L63.633 33.432L67.45 47.982H75.234L75.232 47.972H75.254L70.243 30.924C72.781 29.044 75.649 24.28 74.886 19.721V19.719C74.894 19.777 79.615 48 79.615 48L88.871 47.973L95.198 8.123V47.973H110.205V40.065H103.081V29.985H110.205V21.955H103.081V12.024H110.205V12.025Z" fill="#FEFEFE"/>
</g>
<defs>
<clipPath id="clip0_13_578">
<rect width="130" height="52" fill="white"/>
</clipPath>
</defs>
</svg>
